common/src/main/resources/files/fileTypes/jfr.svg

<svg xmlns="http://www.w3.org/2000/svg" width="16" height="16" data-big="true" viewBox="0 0 24 24"><path fill="#66BB6A" d="M12 2A10 10 0 0 0 2 12a10 10 0 0 0 10 10 10 10 0 0 0 10-10A10 10 0 0 0 12 2m0 2a8 8 0 0 1 8 8c0 2.4-1 4.5-2.7 6-1.4-1.3-3.3-2-5.3-2s-3.8.7-5.3 2C5 16.5 4 14.4 4 12a8 8 0 0 1 8-8m2 1.89c-.38.01-.74.26-.9.65l-1.29 3.23-.1.23c-.71.13-1.3.6-1.57 1.26-.41 1.03.09 2.19 1.12 2.6s2.19-.09 2.6-1.12c.26-.66.14-1.42-.29-1.98l.1-.26 1.29-3.21.01-.03c.2-.51-.05-1.09-.56-1.3-.13-.05-.26-.07-.41-.07M10 6a1 1 0 0 0-1 1 1 1 0 0 0 1 1 1 1 0 0 0 1-1 1 1 0 0 0-1-1M7 9a1 1 0 0 0-1 1 1 1 0 0 0 1 1 1 1 0 0 0 1-1 1 1 0 0 0-1-1m10 0a1 1 0 0 0-1 1 1 1 0 0 0 1 1 1 1 0 0 0 1-1 1 1 0 0 0-1-1"/></svg>

<!--
  - The MIT License (MIT)
  -
  - Copyright (c) 2015-2024 Elior "Mallowigi" Boukhobza
  -
  - Permission is hereby granted, free of charge, to any person obtaining a copy
  - of this software and associated documentation files (the "Software"), to deal
  - in the Software without restriction, including without limitation the rights
  - to use, copy, modify, merge, publish, distribute, sublicense, and/or sell
  - copies of the Software, and to permit persons to whom the Software is
  - furnished to do so, subject to the following conditions:
  -
  - The above copyright notice and this permission notice shall be included in all
  - copies or substantial portions of the Software.
  -
  - THE SOFTWARE IS PROVIDED "AS IS", WITHOUT WARRANTY OF ANY KIND, EXPRESS OR
  - IMPLIED, INCLUDING BUT NOT LIMITED TO THE WARRANTIES OF MERCHANTABILITY,
  - FITNESS FOR A PARTICULAR PURPOSE AND NONINFRINGEMENT. IN NO EVENT SHALL THE
  - AUTHORS OR COPYRIGHT HOLDERS BE LIABLE FOR ANY CLAIM, DAMAGES OR OTHER
  - LIABILITY, WHETHER IN AN ACTION OF CONTRACT, TORT OR OTHERWISE, ARISING FROM,
  - OUT OF OR IN CONNECTION WITH THE SOFTWARE OR THE USE OR OTHER DEALINGS IN THE
  - SOFTWARE.
  -->


<svg data-big="true" xmlns="http://www.w3.org/2000/svg" version="1.1" width="16px" height="16px" viewBox="0 0 24 24">
  <path fill="#66BB6A"
        d="M12,2A10,10 0 0,0 2,12A10,10 0 0,0 12,22A10,10 0 0,0 22,12A10,10 0 0,0 12,2M12,4A8,8 0 0,1 20,12C20,14.4 19,16.5 17.3,18C15.9,16.7 14,16 12,16C10,16 8.2,16.7 6.7,18C5,16.5 4,14.4 4,12A8,8 0 0,1 12,4M14,5.89C13.62,5.9 13.26,6.15 13.1,6.54L11.81,9.77L11.71,10C11,10.13 10.41,10.6 10.14,11.26C9.73,12.29 10.23,13.45 11.26,13.86C12.29,14.27 13.45,13.77 13.86,12.74C14.12,12.08 14,11.32 13.57,10.76L13.67,10.5L14.96,7.29L14.97,7.26C15.17,6.75 14.92,6.17 14.41,5.96C14.28,5.91 14.15,5.89 14,5.89M10,6A1,1 0 0,0 9,7A1,1 0 0,0 10,8A1,1 0 0,0 11,7A1,1 0 0,0 10,6M7,9A1,1 0 0,0 6,10A1,1 0 0,0 7,11A1,1 0 0,0 8,10A1,1 0 0,0 7,9M17,9A1,1 0 0,0 16,10A1,1 0 0,0 17,11A1,1 0 0,0 18,10A1,1 0 0,0 17,9Z"/>
</svg>
